img/advantages/gear.svg

<svg width="107" height="91" viewBox="0 0 107 91" fill="none" xmlns="http://www.w3.org/2000/svg">
<path d="M53.1504 56.51C48.5804 56.51 44.4904 53.78 42.7404 49.56C41.5904 46.78 41.5904 43.72 42.7404 40.94C43.8904 38.16 46.0504 36 48.8304 34.85C50.2104 34.28 51.6604 33.99 53.1304 33.99C57.7004 33.99 61.7904 36.72 63.5404 40.94C64.6904 43.72 64.6904 46.78 63.5404 49.56C62.3904 52.34 60.2304 54.5 57.4504 55.65C56.0804 56.22 54.6304 56.51 53.1504 56.51ZM53.1404 36.24C51.9604 36.24 50.8004 36.47 49.7004 36.93C47.4804 37.85 45.7504 39.58 44.8304 41.8C43.9104 44.02 43.9104 46.47 44.8304 48.69C46.2304 52.07 49.5004 54.25 53.1504 54.25C54.3304 54.25 55.4904 54.02 56.5904 53.56C58.8104 52.64 60.5404 50.91 61.4604 48.69C62.3804 46.47 62.3804 44.02 61.4604 41.8C60.0704 38.42 56.8004 36.24 53.1404 36.24Z" fill="white"/>
<path d="M59.6702 73.18L56.4202 67.68C54.2402 68 52.0402 68 49.8802 67.68L46.6202 73.17L38.0002 69.61L39.5802 63.43C37.8302 62.13 36.2802 60.58 34.9602 58.81L28.7702 60.4L25.2002 51.78L30.7002 48.52C30.3802 46.35 30.3702 44.16 30.7002 41.99L25.2002 38.74L28.7702 30.12L34.9602 31.71C36.2702 29.95 37.8202 28.4 39.5802 27.1L38.0002 20.88L46.6202 17.31L49.8802 22.81C52.0402 22.49 54.2502 22.49 56.4102 22.81L59.6702 17.31L68.2902 20.88L66.7102 27.07C68.4702 28.38 70.0202 29.92 71.3302 31.69L77.5202 30.11L81.0902 38.73L75.5902 41.99C75.9102 44.16 75.9202 46.35 75.6002 48.52L81.1002 51.77L77.5302 60.39L71.3402 58.8C70.0302 60.56 68.4802 62.11 66.7202 63.42L68.3102 69.61L59.6702 73.18ZM57.5602 65.2L60.6102 70.35L65.6202 68.27L64.1302 62.46L64.7802 62.01C66.8002 60.62 68.5402 58.89 69.9302 56.87L70.3802 56.22L76.1902 57.71L78.2702 52.7L73.1202 49.65L73.2602 48.88C73.7002 46.47 73.7002 44.02 73.2502 41.61L73.1102 40.84L78.2702 37.78L76.2002 32.77L70.4902 34.23L69.9502 33.61C68.5502 31.59 66.8202 29.86 64.8102 28.47L64.1602 28.02L65.6402 22.21L60.6302 20.13L57.5702 25.29L56.8002 25.15C54.4102 24.71 51.9202 24.71 49.5302 25.15L48.7602 25.29L45.7002 20.14L40.6902 22.22L42.1802 28.03L41.5302 28.48C39.5002 29.87 37.7702 31.6 36.3802 33.62L35.9302 34.27L30.1302 32.78L28.0502 37.79L33.2102 40.84L33.0702 41.61C32.6202 44.02 32.6202 46.47 33.0702 48.88L33.2102 49.65L28.0502 52.71L30.1302 57.72L35.9302 56.23L36.3802 56.88C37.7802 58.92 39.5202 60.65 41.5202 62.03L42.1702 62.48L40.6902 68.28L45.7002 70.36L48.7502 65.21L49.5202 65.35C51.9002 65.79 54.3802 65.79 56.8002 65.35L57.5602 65.2Z" fill="white"/>
<path d="M88.5098 50.42C85.6598 50.42 83.3398 48.1 83.3398 45.25C83.3398 42.4 85.6598 40.08 88.5098 40.08C91.3598 40.08 93.6798 42.4 93.6798 45.25C93.6798 48.1 91.3598 50.42 88.5098 50.42ZM88.5098 42.33C86.8998 42.33 85.5898 43.64 85.5898 45.25C85.5898 46.86 86.8998 48.17 88.5098 48.17C90.1198 48.17 91.4298 46.86 91.4298 45.25C91.4298 43.64 90.1198 42.33 88.5098 42.33Z" fill="white"/>
<path d="M102.33 49.05C102.01 50.2 101.56 51.3 100.97 52.32L103.37 55.53L98.8 60.1L95.59 57.7C94.56 58.29 93.46 58.75 92.31 59.06L91.75 63.03H85.28L84.71 59.06C83.5 58.73 82.36 58.25 81.29 57.63L82.15 55.51C83.31 56.25 84.59 56.76 85.95 57.05L86.72 57.22L87.23 60.78H89.8L90.31 57.21L91.08 57.04C92.5 56.74 93.84 56.19 95.05 55.4L95.71 54.97L98.59 57.13L100.41 55.31L98.25 52.43L98.68 51.77C99.47 50.55 100.02 49.22 100.32 47.8L100.49 47.03L104.06 46.52V43.95L100.52 43.45L100.34 42.71C100.02 41.25 99.47 39.91 98.69 38.7L98.26 38.04L100.42 35.16L98.6 33.34L95.72 35.5L95.06 35.07C93.84 34.29 92.51 33.73 91.09 33.43L90.32 33.26L89.81 29.7H87.24L86.73 33.27L85.96 33.44C84.61 33.73 83.34 34.24 82.17 34.96L81.31 32.86C82.38 32.22 83.52 31.75 84.72 31.42L85.29 27.45H91.76L92.33 31.42C93.48 31.74 94.58 32.19 95.61 32.78L98.82 30.38L103.39 34.95L100.99 38.16C101.58 39.19 102.03 40.29 102.35 41.43L106.32 42V48.47L102.33 49.05Z" fill="white"/>
<path d="M17.7799 50.42C14.9299 50.42 12.6099 48.1 12.6099 45.25C12.6099 42.4 14.9299 40.08 17.7799 40.08C20.6299 40.08 22.9499 42.4 22.9499 45.25C22.9499 48.1 20.6299 50.42 17.7799 50.42ZM17.7799 42.33C16.1699 42.33 14.8599 43.64 14.8599 45.25C14.8599 46.86 16.1699 48.17 17.7799 48.17C19.3899 48.17 20.6999 46.86 20.6999 45.25C20.6999 43.64 19.3899 42.33 17.7799 42.33Z" fill="white"/>
<path d="M25.09 57.58C23.99 58.23 22.82 58.73 21.58 59.07L21.02 63.04H14.55L13.98 59.07C12.83 58.76 11.73 58.3 10.7 57.71L7.49 60.11L2.92 55.54L5.32 52.33C4.73 51.3 4.28 50.2 3.97 49.06L0 48.48V42.01L3.97 41.44C4.29 40.29 4.74 39.19 5.32 38.17L2.92 34.96L7.49 30.39L10.7 32.79C11.73 32.2 12.83 31.75 13.98 31.43L14.55 27.46H21.02L21.59 31.43C22.82 31.77 23.99 32.26 25.07 32.92L24.21 35.03C23.02 34.27 21.73 33.75 20.33 33.45L19.56 33.28L19.05 29.71H16.5L15.99 33.27L15.22 33.44C13.79 33.75 12.46 34.3 11.25 35.08L10.59 35.51L7.72 33.35L5.9 35.17L8.06 38.05L7.63 38.71C6.85 39.93 6.29 41.26 5.99 42.68L5.93 42.88L5.73 43.47L2.26 43.97V46.54L5.83 47.05L6 47.82C6.3 49.24 6.85 50.58 7.64 51.79L8.07 52.45L5.91 55.33L7.72 57.15L10.6 54.99L11.26 55.42C12.48 56.21 13.81 56.76 15.23 57.06L16 57.23L16.51 60.8H19.08L19.59 57.24L20.36 57.07C21.75 56.77 23.06 56.24 24.24 55.49L25.09 57.58Z" fill="white"/>
<path d="M88.74 76.87L87.97 70.44L81.54 71.21L81.27 68.97L89.94 67.93L90.98 76.6L88.74 76.87Z" fill="white"/>
<path d="M52.3899 90.49C37.6899 90.49 24.0499 83.17 15.9199 70.9L17.7999 69.65C25.5199 81.29 38.4499 88.24 52.3999 88.24C66.3499 88.24 79.2799 81.29 86.9999 69.65L88.8799 70.9C80.7299 83.17 67.0999 90.49 52.3899 90.49Z" fill="white"/>
<path d="M16.3398 22.6L15.2998 13.94L17.5298 13.67L18.3098 20.1L24.7398 19.32L25.0098 21.56L16.3398 22.6Z" fill="white"/>
<path d="M88.4899 20.84C80.7799 9.2 67.8399 2.25 53.8999 2.25C39.9499 2.25 27.0199 9.2 19.2999 20.84L17.4199 19.59C25.5599 7.32 39.1899 0 53.8999 0C68.5999 0 82.2399 7.32 90.3699 19.59L88.4899 20.84Z" fill="white"/>
</svg>

<svg width="107" height="91" fill="none" xmlns="http://www.w3.org/2000/svg"><path d="M53.15 56.51c-4.57 0-8.66-2.73-10.41-6.95a11.2 11.2 0 010-8.62c1.15-2.78 3.31-4.94 6.09-6.09 1.38-.57 2.83-.86 4.3-.86 4.57 0 8.66 2.73 10.41 6.95a11.2 11.2 0 010 8.62 11.158 11.158 0 01-6.09 6.09c-1.37.57-2.82.86-4.3.86zm-.01-20.27c-1.18 0-2.34.23-3.44.69a8.945 8.945 0 00-4.87 4.87 8.945 8.945 0 000 6.89 8.982 8.982 0 008.32 5.56c1.18 0 2.34-.23 3.44-.69a8.945 8.945 0 004.87-4.87c.92-2.22.92-4.67 0-6.89a8.962 8.962 0 00-8.32-5.56z" fill="#fff"/><path d="M59.67 73.18l-3.25-5.5c-2.18.32-4.38.32-6.54 0l-3.26 5.49L38 69.61l1.58-6.18c-1.75-1.3-3.3-2.85-4.62-4.62l-6.19 1.59-3.57-8.62 5.5-3.26c-.32-2.17-.33-4.36 0-6.53l-5.5-3.25 3.57-8.62 6.19 1.59c1.31-1.76 2.86-3.31 4.62-4.61L38 20.88l8.62-3.57 3.26 5.5c2.16-.32 4.37-.32 6.53 0l3.26-5.5 8.62 3.57-1.58 6.19c1.76 1.31 3.31 2.85 4.62 4.62l6.19-1.58 3.57 8.62-5.5 3.26c.32 2.17.33 4.36.01 6.53l5.5 3.25-3.57 8.62-6.19-1.59a22.479 22.479 0 01-4.62 4.62l1.59 6.19-8.64 3.57zm-2.11-7.98l3.05 5.15 5.01-2.08-1.49-5.81.65-.45c2.02-1.39 3.76-3.12 5.15-5.14l.45-.65 5.81 1.49 2.08-5.01-5.15-3.05.14-.77c.44-2.41.44-4.86-.01-7.27l-.14-.77 5.16-3.06-2.07-5.01-5.71 1.46-.54-.62c-1.4-2.02-3.13-3.75-5.14-5.14l-.65-.45 1.48-5.81-5.01-2.08-3.06 5.16-.77-.14c-2.39-.44-4.88-.44-7.27 0l-.77.14-3.06-5.15-5.01 2.08 1.49 5.81-.65.45a19.82 19.82 0 00-5.15 5.14l-.45.65-5.8-1.49-2.08 5.01 5.16 3.05-.14.77c-.45 2.41-.45 4.86 0 7.27l.14.77-5.16 3.06 2.08 5.01 5.8-1.49.45.65c1.4 2.04 3.14 3.77 5.14 5.15l.65.45-1.48 5.8 5.01 2.08 3.05-5.15.77.14c2.38.44 4.86.44 7.28 0l.76-.15zM88.51 50.42c-2.85 0-5.17-2.32-5.17-5.17s2.32-5.17 5.17-5.17 5.17 2.32 5.17 5.17-2.32 5.17-5.17 5.17zm0-8.09c-1.61 0-2.92 1.31-2.92 2.92 0 1.61 1.31 2.92 2.92 2.92 1.61 0 2.92-1.31 2.92-2.92 0-1.61-1.31-2.92-2.92-2.92z" fill="#fff"/><path d="M102.33 49.05c-.32 1.15-.77 2.25-1.36 3.27l2.4 3.21-4.57 4.57-3.21-2.4c-1.03.59-2.13 1.05-3.28 1.36l-.56 3.97h-6.47l-.57-3.97c-1.21-.33-2.35-.81-3.42-1.43l.86-2.12c1.16.74 2.44 1.25 3.8 1.54l.77.17.51 3.56h2.57l.51-3.57.77-.17c1.42-.3 2.76-.85 3.97-1.64l.66-.43 2.88 2.16 1.82-1.82-2.16-2.88.43-.66a11.72 11.72 0 001.64-3.97l.17-.77 3.57-.51v-2.57l-3.54-.5-.18-.74c-.32-1.46-.87-2.8-1.65-4.01l-.43-.66 2.16-2.88-1.82-1.82-2.88 2.16-.66-.43c-1.22-.78-2.55-1.34-3.97-1.64l-.77-.17-.51-3.56h-2.57l-.51 3.57-.77.17c-1.35.29-2.62.8-3.79 1.52l-.86-2.1a13.65 13.65 0 013.41-1.44l.57-3.97h6.47l.57 3.97c1.15.32 2.25.77 3.28 1.36l3.21-2.4 4.57 4.57-2.4 3.21c.59 1.03 1.04 2.13 1.36 3.27l3.97.57v6.47l-3.99.58zM17.78 50.42c-2.85 0-5.17-2.32-5.17-5.17s2.32-5.17 5.17-5.17 5.17 2.32 5.17 5.17-2.32 5.17-5.17 5.17zm0-8.09c-1.61 0-2.92 1.31-2.92 2.92 0 1.61 1.31 2.92 2.92 2.92 1.61 0 2.92-1.31 2.92-2.92 0-1.61-1.31-2.92-2.92-2.92z" fill="#fff"/><path d="M25.09 57.58c-1.1.65-2.27 1.15-3.51 1.49l-.56 3.97h-6.47l-.57-3.97c-1.15-.31-2.25-.77-3.28-1.36l-3.21 2.4-4.57-4.57 2.4-3.21c-.59-1.03-1.04-2.13-1.35-3.27L0 48.48v-6.47l3.97-.57c.32-1.15.77-2.25 1.35-3.27l-2.4-3.21 4.57-4.57 3.21 2.4c1.03-.59 2.13-1.04 3.28-1.36l.57-3.97h6.47l.57 3.97c1.23.34 2.4.83 3.48 1.49l-.86 2.11c-1.19-.76-2.48-1.28-3.88-1.58l-.77-.17-.51-3.57H16.5l-.51 3.56-.77.17c-1.43.31-2.76.86-3.97 1.64l-.66.43-2.87-2.16-1.82 1.82 2.16 2.88-.43.66c-.78 1.22-1.34 2.55-1.64 3.97l-.06.2-.2.59-3.47.5v2.57l3.57.51.17.77c.3 1.42.85 2.76 1.64 3.97l.43.66-2.16 2.88 1.81 1.82 2.88-2.16.66.43c1.22.79 2.55 1.34 3.97 1.64l.77.17.51 3.57h2.57l.51-3.56.77-.17c1.39-.3 2.7-.83 3.88-1.58l.85 2.09zM88.74 76.87l-.77-6.43-6.43.77-.27-2.24 8.67-1.04 1.04 8.67-2.24.27z" fill="#fff"/><path d="M52.39 90.49c-14.7 0-28.34-7.32-36.47-19.59l1.88-1.25c7.72 11.64 20.65 18.59 34.6 18.59 13.95 0 26.88-6.95 34.6-18.59l1.88 1.25C80.73 83.17 67.1 90.49 52.39 90.49zM16.34 22.6l-1.04-8.66 2.23-.27.78 6.43 6.43-.78.27 2.24-8.67 1.04z" fill="#fff"/><path d="M88.49 20.84C80.78 9.2 67.84 2.25 53.9 2.25c-13.95 0-26.88 6.95-34.6 18.59l-1.88-1.25C25.56 7.32 39.19 0 53.9 0c14.7 0 28.34 7.32 36.47 19.59l-1.88 1.25z" fill="#fff"/></svg>
